!! 00000] TT[WS
!!!OTL: Ge jiucai
!!!ARE: Asia, China, Shanxi Linxian
!! Ethnic Group: Han
!! WII, 68 (1)
!!!SCT: J0497
!!!YEM: Copyright 1995, estate of Helmut Schaffrath.
**kern
*ICvox
*Ivox
*M2/4
*k[f#]
*G:
{4g
8g
8e
=1
4d
4d
=2
4g
8g
8b
=3
2a}
=4
{4dd
8dd
8b
=5
4a
4g
=6
8e
8d
8e
8g
=7
2d}
=8
{4g
8g
8e
=9
4d
4d
=10
4.g
8b
=11
2a}
=12
{4dd
4g
=13
8a
8b
8a
8g
=14
4.d
8e
=15
2d}
==
!!!AGN: Xiaodiao. Qingge, Sichun
!!!ONB: ESAC (Essen Associative Code) Database: CHINA
!!!AMT: simple duple
!!!AIN: vox
!!!EED: Helmut Schaffrath
!!!EEV: 1.0
*-
